resources/svg/add-table.svg

<svg xmlns="http://www.w3.org/2000/svg" width="24" height="24" viewBox="0 0 24 24" >
  <path fill="currentColor" fill-rule="evenodd" d="M17,17 L17,22 L19,22 C20.6568542,22 22,20.6568542 22,19 L22,17 L17,17 Z M15,17 L9,17 L9,22 L15,22 L15,17 Z M17,15 L22,15 L22,9 L17,9 L17,15 Z M15,15 L15,9 L9,9 L9,15 L15,15 Z M17,7 L22,7 L22,5 C22,3.34314575 20.6568542,2 19,2 L17,2 L17,7 Z M15,7 L15,2 L9,2 L9,7 L15,7 Z M24,16.1768671 L24,19 C24,21.7614237 21.7614237,24 19,24 L5,24 C2.23857625,24 2.11453371e-15,21.7614237 1.77635684e-15,19 L0,5 C-3.38176876e-16,2.23857625 2.23857625,2.28362215e-15 5,0 L19,0 C21.7614237,-5.07265313e-16 24,2.23857625 24,5 L24,7.82313285 C24.0122947,7.88054124 24.0187107,7.93964623 24.0187107,8 C24.0187107,8.06035377 24.0122947,8.11945876 24,8.17686715 L24,15.8231329 C24.0122947,15.8805412 24.0187107,15.9396462 24.0187107,16 C24.0187107,16.0603538 24.0122947,16.1194588 24,16.1768671 Z M7,2 L5,2 C3.34314575,2 2,3.34314575 2,5 L2,7 L7,7 L7,2 Z M2,9 L2,15 L7,15 L7,9 L2,9 Z M2,17 L2,19 C2,20.6568542 3.34314575,22 5,22 L7,22 L7,17 L2,17 Z"/>
</svg>

<svg xmlns="http://www.w3.org/2000/svg" viewBox="0 0 24 24"><path fill="currentColor" fill-rule="evenodd" d="M17 17v5h2a3 3 0 0 0 3-3v-2h-5Zm-2 0H9v5h6v-5Zm2-2h5V9h-5v6Zm-2 0V9H9v6h6Zm2-8h5V5a3 3 0 0 0-3-3h-2v5Zm-2 0V2H9v5h6Zm9 9.177V19a5 5 0 0 1-5 5H5a5 5 0 0 1-5-5V5a5 5 0 0 1 5-5h14a5 5 0 0 1 5 5v2.823a.843.843 0 0 1 0 .354v7.646a.843.843 0 0 1 0 .354ZM7 2H5a3 3 0 0 0-3 3v2h5V2ZM2 9v6h5V9H2Zm0 8v2a3 3 0 0 0 3 3h2v-5H2Z"/></svg>
